X: 46
T: Skidoo
R: reel
M: 4/4
L: 1/8
K: Emin
|:"Em"GE E2 B2 AB|G3A BdAG|"Bm"FdAF D2 BA|GEED EBAB|
"Am"GE E2 B2 AB|GBef gfed|"C"A2 de f3a|1 "D"gfed "Em"edBA:|2 "D"gfed "Em"e3 f||
|:"Em"ge e2 Bege|Bege "Am"cedc|"Em"BEGA BEGA|BEGA "D"(3B^cd ef|
"Em"e3d ebba|"C"g2 fg e2 AB|cAEA BGEG|1 "D" ADFD "Em"E2 ef:|2 "D"ADFD "Em"BEBA||

%%newpage

